outputs/icons/social/facebook_round.svg

<svg xmlns="http://www.w3.org/2000/svg" width="1200" height="1200" fill="none"><g clip-path="url(#a)"><path fill="#000" d="M1100 600c0-276.152-223.865-500-500-500-276.133 0-500 223.848-500 500 0 249.55 182.851 456.405 421.875 493.905V744.53H394.922V600h126.953V489.844c0-125.313 74.65-194.531 188.85-194.531 54.685 0 111.93 9.765 111.93 9.765v123.047H759.61c-62.11 0-81.485 38.535-81.485 78.125V600h138.67L794.63 744.53H678.125v349.375C917.15 1056.405 1100 849.55 1100 600"/></g><defs><clipPath id="a"><path fill="#fff" d="M0 0h1200v1200H0z"/></clipPath></defs></svg>

<svg width="1200" height="1200" viewBox="0 0 1200 1200" fill="none" xmlns="http://www.w3.org/2000/svg"><g clip-path="url(#clip0_788_1992)"><path d="M1100 600C1100 323.848 876.135 100 600 100C323.867 100 100 323.848 100 600C100 849.55 282.851 1056.405 521.875 1093.905V744.53H394.922V600H521.875V489.844C521.875 364.531 596.525 295.313 710.725 295.313C765.41 295.313 822.655 305.078 822.655 305.078V428.125H759.61C697.5 428.125 678.125 466.66 678.125 506.25V600H816.795L794.63 744.53H678.125V1093.905C917.15 1056.405 1100 849.55 1100 600Z" fill="black"/></g><defs><clipPath id="clip0_788_1992"><path width="24" fill="white" d="M0 0H1200V1200H0V0z"/></clipPath></defs></svg>
